dist/assets/images/about/logo-7.svg

<svg width="46" height="95" viewBox="0 0 46 95" fill="none" xmlns="http://www.w3.org/2000/svg">
<path fill-rule="evenodd" clip-rule="evenodd" d="M10.5399 0.897614C10.4453 3.16628 10.3508 5.43494 10.2563 7.65634C8.7911 8.79067 7.27865 9.87773 5.81348 11.0121C5.81348 13.4225 5.81348 15.833 5.81348 18.2907C7.32592 17.8181 8.83836 17.8181 10.3508 17.8181C10.5399 23.4424 10.7289 29.0668 10.8707 34.7385C10.9652 35.4947 11.0125 36.2037 11.107 36.9126C10.5871 37.4325 10.5399 37.8579 9.45279 38.5196C8.31846 39.134 8.03487 39.0868 7.75129 40.5519C7.89308 42.3007 7.89308 42.4425 9.12194 43.3878C9.97269 43.6241 10.3508 43.8131 11.2015 43.435C11.7215 56.5744 12.1941 69.6664 12.714 82.8058C12.9503 82.7585 13.1394 82.664 13.3757 82.6167C13.3757 82.4277 13.3757 82.2386 13.3757 82.0496C13.3757 81.8605 13.3757 81.6242 13.3757 81.4351C13.3757 81.057 13.3757 80.6789 13.3284 80.3481C12.9976 67.9649 12.6667 55.5818 12.3359 43.1987C13.1394 42.6788 13.8011 42.1589 14.5573 41.5445C15.219 44.0495 15.408 46.3181 15.4553 48.9649C15.2662 49.8156 15.0772 50.7136 14.8881 51.5644C14.51 54.0221 14.1792 56.3853 14.1319 58.843C14.0846 59.4102 14.0374 60.0246 14.0374 60.5918C14.2737 60.5918 14.51 60.5918 14.7463 60.5918C15.0299 62.4351 15.2662 64.2784 15.408 66.1689C14.6991 69.5719 15.1244 72.3605 15.5498 75.6689L16.0697 80.0172C16.1642 80.7262 14.6045 81.5296 14.6518 82.0496C14.6518 82.6167 15.5971 82.9476 16.0697 83.0894C16.6369 83.1366 16.5896 83.2784 17.8185 82.9948C19.2364 82.664 19.2364 82.4277 19.0946 81.3879C19.0001 80.7734 18.811 80.6789 18.7638 79.8281C18.7165 78.6466 18.8583 76.8505 18.9055 75.7635C19.0946 73.6366 19.5672 71.6515 19.8508 69.5246C19.8981 68.4848 19.9926 67.7759 19.7563 66.7833C19.8508 66.3107 19.9926 65.8853 20.0871 65.4127C20.2762 64.5147 20.418 63.6167 20.5125 62.7187C20.5598 62.2933 20.5598 61.9152 20.607 61.4898C20.8906 61.4898 21.1742 61.5371 21.4578 61.5371C21.5051 62.7659 21.5996 63.7585 21.8832 64.94C22.025 65.5545 22.1667 66.2162 22.3085 66.8306C22.2613 67.3032 22.2613 67.7759 22.214 68.2485C22.1667 68.7684 22.1195 69.2411 22.1195 69.761C22.1667 70.3754 22.3085 70.9426 22.4031 71.5097C22.5449 72.2659 22.6867 73.0222 22.8284 73.7784C23.1593 75.4326 23.3956 79.5918 23.3011 80.3953C23.2066 80.7734 22.9702 81.057 22.8757 81.4824C22.8284 81.766 22.8284 81.955 22.8757 82.1913C22.9702 82.5694 23.3956 82.7585 23.9628 82.8058C25.0971 82.9476 24.7663 82.9476 25.9479 82.9003C26.2787 82.9003 26.7513 82.8058 27.0349 82.5222C27.224 82.3331 27.5076 81.8605 27.3658 81.6242C26.9877 81.0097 26.326 80.6789 25.8061 80.2535C25.8061 80.2535 25.8061 79.6391 25.8533 79.5446C25.9479 79.1192 26.5623 75.7635 26.6095 75.1963C26.9404 74.0147 26.9877 72.7858 27.1294 71.6042C27.224 69.9028 27.1294 68.863 26.6568 67.3505C26.7513 65.2236 26.7986 63.1913 27.0349 61.1589L28.0747 65.0818L28.7837 66.4998L29.4926 67.8231L29.6344 66.547L29.729 65.1291L28.2165 57.0943C28.6892 57.3306 29.1145 57.5196 29.5872 57.756C31.6668 55.1564 33.2737 52.6042 33.5573 49.0122C33.7464 45.231 33.6046 41.4027 33.1792 37.6688C33.1319 37.0544 33.0847 36.4872 33.0374 35.8728L30.0598 36.3927C29.6344 35.0693 29.1618 34.1241 27.413 33.1788C26.2787 32.5644 25.2389 32.2335 23.9155 31.8554C23.8682 32.4698 24.3881 29.0668 24.3881 27.6017C24.1046 26.4201 23.6792 25.333 23.112 24.1987C21.5996 24.0569 20.1344 23.9623 18.5747 24.1987C18.1493 25.3803 17.6767 26.4201 17.2986 27.6962C17.4404 29.2086 17.7712 30.5793 17.9603 32.0445C17.1095 32.3753 16.117 32.5171 15.3135 32.9425C14.0374 33.5096 13.1866 34.3131 12.0996 35.2584C11.8632 29.4449 11.5797 23.6788 11.3433 17.8653C13.4229 18.2434 15.408 18.7161 17.4876 19.2832C19.4727 19.9449 21.4578 20.6539 23.3956 21.4574C26.5623 22.3554 29.2091 22.9225 32.423 22.7807C36.5822 22.1663 33.3683 22.1663 34.7389 19.2832C35.8732 18.4797 37.1966 18.1016 38.52 17.0146C36.4877 16.1166 35.4951 15.7384 36.9603 13.2335C37.4802 12.2882 38.0001 11.3429 38.52 10.4449C37.433 11.0121 36.3459 11.6265 35.2588 12.1937C34.1245 12.7136 33.4628 12.9971 32.2812 13.0444C29.918 13.2335 30.1543 12.9971 30.3906 15.6912C27.9802 15.6439 26.1369 15.0768 23.821 14.3678C21.5051 13.4698 19.1419 12.619 16.8259 11.721C14.8881 11.1539 13.1866 10.7285 11.1543 10.7285C11.0125 7.98718 11.107 5.15135 10.7289 2.45732C10.6816 1.93742 10.6344 1.41752 10.5399 0.897614Z" fill="#313131"/>
<path fill-rule="evenodd" clip-rule="evenodd" d="M0.566696 84.4602H43.8603C43.9076 84.4602 43.9549 84.5074 43.9549 84.5547V85.4055C43.9549 85.4527 43.9076 85.5 43.8603 85.5H0.566696C0.519432 85.5 0.472168 85.4527 0.472168 85.4055V84.5547C0.472168 84.5074 0.519432 84.4602 0.566696 84.4602Z" fill="#313131"/>
<path fill-rule="evenodd" clip-rule="evenodd" d="M42.8209 0C42.0174 0 41.3084 0.330847 40.7413 0.850748C40.1741 1.46518 39.8433 2.12687 39.8433 3.02488C39.8433 3.82837 40.1741 4.49006 40.7413 5.05723C41.3084 5.67166 42.0174 5.90797 42.8209 5.90797C43.6244 5.90797 44.3806 5.67166 44.9477 5.05723C45.5149 4.49006 45.7985 3.7811 45.7985 3.02488C45.7985 2.17413 45.5149 1.46518 44.9477 0.850748C44.3806 0.330847 43.6244 0 42.8209 0ZM41.1194 1.27612C41.592 0.850748 42.2064 0.567166 42.8209 0.567166C43.4826 0.567166 44.097 0.850748 44.5224 1.27612C44.995 1.79602 45.2313 2.31593 45.2313 3.02488C45.2313 3.68658 44.995 4.30101 44.5224 4.72638C44.0497 5.19902 43.4353 5.43534 42.8209 5.43534C42.1592 5.43534 41.5448 5.19902 41.1194 4.72638C40.6467 4.30101 40.4104 3.68658 40.4577 3.02488C40.3632 2.31593 40.6467 1.74876 41.1194 1.27612Z" fill="#313131"/>
<path fill-rule="evenodd" clip-rule="evenodd" d="M41.5928 4.48981V1.70125H42.7744C43.058 1.70125 43.2943 1.74851 43.4361 1.79578C43.5779 1.84304 43.6724 1.93757 43.7669 2.07936C43.8614 2.22115 43.9087 2.36294 43.9087 2.50473C43.9087 2.69379 43.8614 2.88284 43.7196 3.02463C43.5779 3.16643 43.4361 3.26095 43.1525 3.26095C43.2943 3.30822 43.3888 3.40274 43.4361 3.49727C43.5306 3.5918 43.6251 3.73359 43.7669 3.96991L44.0978 4.48981H43.4361L43.0107 3.87538C42.8689 3.63906 42.7744 3.54454 42.7271 3.45001C42.6798 3.40274 42.6326 3.35548 42.538 3.35548C42.4908 3.35548 42.3963 3.30822 42.2545 3.30822H42.1599V4.48981H41.5928ZM42.1599 2.88284H42.5853C42.8689 2.88284 43.0107 2.88284 43.1052 2.83558C43.1525 2.78832 43.247 2.78832 43.247 2.74105C43.2943 2.69379 43.2943 2.59926 43.2943 2.552C43.2943 2.45747 43.247 2.36294 43.1997 2.31568C43.1525 2.26841 43.058 2.22115 43.0107 2.22115C42.9634 2.22115 42.8216 2.22115 42.5853 2.22115H42.1599V2.88284Z" fill="#313131"/>
<path fill-rule="evenodd" clip-rule="evenodd" d="M1.60697 94.8592L0 87.9587H1.41791L2.45772 92.7323L3.73384 87.9587H5.38807L6.61693 92.7796L7.65673 87.9587H9.07465L7.42042 94.8592H5.90797L4.53732 89.7074L3.16667 94.8592H1.60697ZM10.1145 94.8592V87.9587H15.2189V89.1403H11.4851V90.6527H14.9354V91.8343H11.4851V93.7249H15.3607V94.9065H10.1145V94.8592ZM21.3632 92.307L22.7339 92.7323C22.5448 93.4885 22.1667 94.0557 21.6941 94.4338C21.2214 94.8119 20.607 95.001 19.8508 95.001C18.9528 95.001 18.1966 94.6701 17.5821 94.0557C16.9677 93.4413 16.6841 92.5905 16.6841 91.5035C16.6841 90.3691 16.9677 89.4711 17.5821 88.8094C18.1966 88.195 18.9528 87.8642 19.9453 87.8642C20.7961 87.8642 21.4578 88.1005 22.0249 88.6204C22.3558 88.904 22.5921 89.3293 22.7339 89.8965L21.3632 90.2273C21.2687 89.8492 21.1269 89.5657 20.8433 89.3766C20.5597 89.1875 20.2762 89.0457 19.8981 89.0457C19.3782 89.0457 18.9528 89.2348 18.6692 89.6129C18.3384 89.991 18.1966 90.5582 18.1966 91.4089C18.1966 92.2597 18.3384 92.9214 18.6692 93.2522C19 93.6303 19.3782 93.8194 19.8981 93.8194C20.2762 93.8194 20.607 93.7249 20.8433 93.4413C21.0324 93.205 21.2214 92.8269 21.3632 92.307ZM23.9627 91.4562C23.9627 90.7472 24.0573 90.1801 24.2936 89.6602C24.4354 89.3293 24.6717 88.9985 24.9553 88.7149C25.2389 88.4313 25.5224 88.2423 25.8533 88.1005C26.2787 87.9114 26.7986 87.8169 27.3657 87.8169C28.4055 87.8169 29.209 88.1477 29.8235 88.7622C30.4379 89.3766 30.7215 90.2746 30.7215 91.4089C30.7215 92.5433 30.4379 93.394 29.8235 94.0557C29.209 94.6701 28.4055 95.001 27.3657 95.001C26.3259 95.001 25.5224 94.6701 24.908 94.0557C24.2463 93.394 23.9627 92.5433 23.9627 91.4562ZM25.3807 91.4089C25.3807 92.2124 25.5697 92.7796 25.9478 93.205C26.3259 93.6303 26.7513 93.8194 27.3185 93.8194C27.8856 93.8194 28.311 93.6303 28.6891 93.205C29.0672 92.7796 29.209 92.2124 29.209 91.4089C29.209 90.6055 29.02 90.0383 28.6891 89.6129C28.3583 89.2348 27.8856 89.0457 27.3185 89.0457C26.7513 89.0457 26.2787 89.2348 25.9006 89.6602C25.5697 89.991 25.3807 90.6055 25.3807 91.4089ZM32.0921 94.8592V87.9587H33.4628L36.2986 92.5905V87.9587H37.5747V94.8592H36.1568L33.3682 90.3219V94.8592H32.0921ZM40.9777 94.8592V89.093H38.9454V87.9114H44.428V89.093H42.3956V94.8592H40.9777Z" fill="#313131"/>
</svg>

<svg width="46" height="95" fill="none" xmlns="http://www.w3.org/2000/svg"><path fill-rule="evenodd" clip-rule="evenodd" d="M10.54.898l-.284 6.758C8.791 8.791 7.28 9.878 5.813 11.012v7.279c1.513-.473 3.025-.473 4.538-.473.189 5.624.378 11.249.52 16.92.094.757.141 1.466.236 2.175-.52.52-.567.945-1.654 1.607-1.135.614-1.418.567-1.702 2.032.142 1.749.142 1.89 1.37 2.836.852.236 1.23.425 2.08.047.52 13.14.993 26.231 1.513 39.37.236-.047.425-.141.662-.188v-1.182c0-.378 0-.756-.048-1.087l-.992-37.15c.803-.52 1.465-1.04 2.221-1.654.662 2.506.851 4.774.898 7.42-.189.852-.378 1.75-.567 2.6-.378 2.458-.709 4.821-.756 7.279a21.656 21.656 0 00-.095 1.749h.71a71.71 71.71 0 01.661 5.577c-.709 3.403-.284 6.192.142 9.5l.52 4.348c.094.71-1.466 1.513-1.418 2.033 0 .567.945.898 1.418 1.04.567.047.52.188 1.748-.095 1.418-.331 1.418-.567 1.277-1.607-.095-.615-.284-.71-.331-1.56-.047-1.181.094-2.978.142-4.065.189-2.126.661-4.112.945-6.238.047-1.04.142-1.75-.095-2.742.095-.472.237-.898.331-1.37.19-.898.331-1.796.425-2.694.048-.426.048-.804.095-1.23.284 0 .567.048.85.048.048 1.229.143 2.221.426 3.403.142.615.284 1.276.425 1.89-.047.473-.047.946-.094 1.419-.047.52-.095.992-.095 1.512.048.614.19 1.182.284 1.749l.425 2.268c.331 1.655.568 5.814.473 6.617-.094.378-.33.662-.425 1.087a1.784 1.784 0 000 .71c.094.377.52.567 1.087.614 1.134.142.803.142 1.985.094.33 0 .803-.094 1.087-.378.189-.189.473-.662.33-.898-.377-.614-1.039-.945-1.559-1.37 0 0 0-.615.047-.71.095-.425.71-3.78.756-4.348.331-1.181.379-2.41.52-3.592.095-1.701 0-2.741-.472-4.254.094-2.126.142-4.159.378-6.191l1.04 3.923.709 1.418.709 1.323.141-1.276.095-1.418-1.512-8.035c.472.237.898.426 1.37.662 2.08-2.6 3.687-5.152 3.97-8.744a69.85 69.85 0 00-.378-11.343c-.047-.615-.094-1.182-.142-1.796l-2.977.52c-.426-1.324-.898-2.269-2.647-3.214-1.134-.615-2.174-.946-3.497-1.324-.048.615.472-2.788.472-4.253-.283-1.182-.709-2.269-1.276-3.403-1.512-.142-2.978-.237-4.537 0-.426 1.181-.898 2.221-1.276 3.497.141 1.513.472 2.883.661 4.348-.85.331-1.843.473-2.647.899-1.276.567-2.126 1.37-3.213 2.315-.237-5.813-.52-11.58-.757-17.393 2.08.378 4.065.851 6.145 1.418 1.985.662 3.97 1.37 5.908 2.174 3.166.898 5.813 1.465 9.027 1.324 4.16-.615.945-.615 2.316-3.498 1.134-.803 2.458-1.181 3.781-2.268-2.032-.898-3.025-1.277-1.56-3.782.52-.945 1.04-1.89 1.56-2.788-1.087.567-2.174 1.181-3.261 1.749-1.135.52-1.796.803-2.978.85-2.363.19-2.127-.047-1.89 2.647-2.41-.047-4.254-.614-6.57-1.323-2.316-.898-4.68-1.749-6.995-2.647-1.938-.567-3.64-.992-5.672-.992-.142-2.742-.047-5.578-.425-8.272-.047-.52-.095-1.04-.19-1.56zM.567 84.46H43.86c.048 0 .095.047.095.095v.85a.102.102 0 01-.095.095H.567a.102.102 0 01-.095-.094v-.851c0-.048.047-.095.095-.095zM42.82 0c-.803 0-1.512.33-2.079.85-.567.615-.898 1.277-.898 2.175 0 .803.331 1.465.898 2.032.567.615 1.276.851 2.08.851.803 0 1.56-.236 2.127-.85.567-.568.85-1.277.85-2.033 0-.85-.283-1.56-.85-2.174A3.172 3.172 0 0042.82 0zm-1.7 1.276c.472-.425 1.086-.709 1.7-.709.663 0 1.277.284 1.702.71.473.519.71 1.039.71 1.748 0 .662-.237 1.276-.71 1.701a2.399 2.399 0 01-1.701.71c-.662 0-1.276-.237-1.702-.71-.472-.425-.709-1.04-.661-1.701-.095-.71.189-1.276.661-1.749z" fill="#313131"/><path fill-rule="evenodd" clip-rule="evenodd" d="M41.593 4.49V1.7h1.181c.284 0 .52.048.662.095.142.047.236.142.33.283a.763.763 0 01.143.426c0 .189-.048.378-.19.52a.708.708 0 01-.566.236.484.484 0 01.283.236c.095.095.19.237.33.473l.332.52h-.662l-.425-.615c-.142-.236-.237-.33-.284-.425-.047-.047-.094-.095-.189-.095-.047 0-.142-.047-.283-.047h-.095V4.49h-.567zm.567-1.607h.425c.284 0 .426 0 .52-.047.048-.048.142-.048.142-.095.047-.047.047-.142.047-.189a.36.36 0 00-.094-.236.358.358 0 00-.19-.095h-.85v.662zM1.607 94.86L0 87.958h1.418l1.04 4.773 1.276-4.773h1.654l1.229 4.82 1.04-4.82h1.418l-1.655 6.9H5.908l-1.37-5.152-1.371 5.152h-1.56zm8.507 0v-6.901h5.105v1.181h-3.734v1.513h3.45v1.181h-3.45v1.89h3.876v1.182h-5.247v-.047zm11.25-2.553l1.37.425c-.19.757-.567 1.324-1.04 1.702-.473.378-1.087.567-1.843.567-.898 0-1.654-.33-2.269-.945-.614-.615-.898-1.465-.898-2.552 0-1.135.284-2.033.898-2.695.615-.614 1.37-.945 2.363-.945.851 0 1.513.236 2.08.756.33.284.567.71.709 1.276l-1.37.331c-.095-.378-.237-.661-.52-.85-.284-.19-.568-.331-.946-.331-.52 0-.945.189-1.229.567-.33.378-.472.945-.472 1.796 0 .85.141 1.512.472 1.843.331.378.71.567 1.23.567.377 0 .708-.094.944-.378.19-.236.378-.614.52-1.134zm2.599-.85c0-.71.094-1.277.33-1.797.142-.33.379-.661.662-.945a2.77 2.77 0 01.898-.615c.426-.189.946-.283 1.513-.283 1.04 0 1.843.33 2.457.945.615.615.898 1.513.898 2.647s-.283 1.985-.898 2.647c-.614.614-1.418.945-2.457.945-1.04 0-1.844-.33-2.458-.945-.662-.662-.945-1.513-.945-2.6zm1.418-.048c0 .803.189 1.37.567 1.796.378.425.803.614 1.37.614.568 0 .993-.189 1.371-.614s.52-.993.52-1.796-.189-1.37-.52-1.796c-.33-.378-.803-.567-1.37-.567-.568 0-1.04.189-1.418.614-.331.331-.52.946-.52 1.749zm6.711 3.45v-6.9h1.37L36.3 92.59v-4.632h1.276v6.9h-1.418l-2.789-4.537v4.537h-1.276zm8.886 0v-5.766h-2.033v-1.182h5.483v1.182h-2.032v5.766h-1.418z" fill="#313131"/></svg>
